symbolic/32x32/apps/brackets.svg

<svg xmlns="http://www.w3.org/2000/svg" width="32" height="32" version="1"><rect style="opacity:.2" width="28" height="28" x="2" y="3" rx="1.5" ry="1.5"/><rect style="fill:#29aae2" width="28" height="28" x="2" y="2" rx="1.5" ry="1.5"/><rect style="opacity:.2" width="22" height="22" x="5" y="6" rx="1.5" ry="1.5"/><rect style="fill:#fff" width="22" height="22" x="5" y="5" rx="1.5" ry="1.5"/><path style="fill:#424242" d="M7 7v18h8v-4h-4V11h4V7H7zm10 0v4h4v10h-4v4h8V7h-8z"/><path style="fill:#fff;opacity:.2" d="M3.5 2C2.669 2 2 2.669 2 3.5v1C2 3.669 2.669 3 3.5 3h25c.831 0 1.5.669 1.5 1.5v-1c0-.831-.669-1.5-1.5-1.5h-25z"/></svg>

<svg xmlns="http://www.w3.org/2000/svg" width="32" height="32" version="1">
 <rect style="opacity:0.2" width="28" height="28" x="2" y="3" rx="1.5" ry="1.5"/>
 <rect style="fill:#29aae2" width="28" height="28" x="2" y="2" rx="1.5" ry="1.5"/>
 <rect style="opacity:0.2" width="22" height="22" x="5" y="6" rx="1.5" ry="1.5"/>
 <rect style="fill:#ffffff" width="22" height="22" x="5" y="5" rx="1.5" ry="1.5"/>
 <path style="fill:#424242" d="M 7 7 L 7 25 L 15 25 L 15 21 L 11 21 L 11 11 L 15 11 L 15 7 L 7 7 z M 17 7 L 17 11 L 21 11 L 21 21 L 17 21 L 17 25 L 25 25 L 25 7 L 17 7 z"/>
 <path style="fill:#ffffff;opacity:0.2" d="M 3.5 2 C 2.669 2 2 2.669 2 3.5 L 2 4.5 C 2 3.669 2.669 3 3.5 3 L 28.5 3 C 29.331 3 30 3.669 30 4.5 L 30 3.5 C 30 2.669 29.331 2 28.5 2 L 3.5 2 z"/>
</svg>
